X:71
T:Highland Wedding. JJo8.071
B:J.Johnson Choice Collection Vol 8 1758
Z:vmp.Simon Wilson 2013 www.village-music-project.org.uk
M:C|
L:1/4
Q:1/1=80
K:G
Bgge|dBAG|"^tr"E>DEG|"^tr"E>DEG|Bgge|dBAG|"^tr"E>DEF|G2G,2:|
|:gege|dedB|gege|d2B2|geae|gede|dBAG|A2DA|
Bgge|dBAG|"^tr"E>DEG|"^tr"E>DFG|Bgge|dBAG|"^tr"F>DFE|G2G,2:|
